X: 1587
T: Trumpet Hornpipe, The
R:hornpipe
N:"2nd Setting" "Collected by J. O'Neill"
B:O'Neill's 1587
Z:Transcribed by Michael Hogan
M:2/4
L:1/16
Q:80
K:G
D2 | G2GG G2GG | BGBd gdBG | D2DD D2DD | FDFA dcAF |
GGG2 GGG2 | BGBd gdBG | ABcd efge |d2f2 d2 :||
z2 | d2dd d2dd | dBgf edcB | cdec dcBA | ABAF GFED |
(DGFG DGFG) | (DGFG DGFG) | (dGFG) dcBA | G2B2 G2  :||


